html-css/module-10/img/facebook.svg

<svg  xmlns="http://www.w3.org/2000/svg" viewBox="0 0 13 26">
<path d="M12.089,0.199 C12.089,1.675 12.089,4.320 12.089,4.320 C12.089,4.320 9.052,4.017 8.291,5.181 C7.875,5.817 8.122,7.681 8.085,9.019 C9.411,9.019 10.788,9.019 12.114,9.019 C11.774,10.583 11.530,11.643 11.279,12.997 C10.132,12.997 8.063,12.997 8.063,12.997 L8.063,25.801 C8.063,25.801 4.266,25.801 2.481,25.801 C2.482,21.854 2.480,17.249 2.481,13.047 C1.614,13.047 0.973,13.047 0.106,13.047 C0.106,11.571 0.106,10.496 0.106,9.019 C0.947,9.019 1.613,9.019 2.455,9.019 C2.575,6.073 2.620,3.155 4.084,1.669 C5.728,-0.002 7.297,0.199 12.089,0.199 Z"/>
</svg>

<svg xmlns="http://www.w3.org/2000/svg" viewBox="0 0 13 26"><path d="M12.09.2v4.12s-3.04-.3-3.8.86c-.41.64-.17 2.5-.2 3.84h4.02c-.34 1.56-.58 2.62-.83 3.98H8.06v12.8H2.48V13.05H.11V9.02h2.35c.12-2.95.16-5.87 1.62-7.35C5.73 0 7.3.2 12.08.2z"/></svg>
